material/.icons/material/image-off-outline.svg

<svg xmlns="http://www.w3.org/2000/svg" viewBox="0 0 24 24"><path d="M22 20.7L3.3 2 2 3.3l1 1V19c0 1.1.9 2 2 2h14.7l1 1 1.3-1.3M5 19V6.3l7.6 7.6-1.5 1.9L9 13.1 6 17h9.7l2 2H5M8.8 5l-2-2H19c1.1 0 2 .9 2 2v12.2l-2-2V5H8.8"/></svg>

<?xml version="1.0" encoding="UTF-8"?><!DOCTYPE svg PUBLIC "-//W3C//DTD SVG 1.1//EN" "http://www.w3.org/Graphics/SVG/1.1/DTD/svg11.dtd"><svg xmlns="http://www.w3.org/2000/svg" xmlns:xlink="http://www.w3.org/1999/xlink" version="1.1" id="mdi-image-off-outline" width="24" height="24" viewBox="0 0 24 24"><path d="M22 20.7L3.3 2L2 3.3L3 4.3V19C3 20.1 3.9 21 5 21H19.7L20.7 22L22 20.7M5 19V6.3L12.6 13.9L11.1 15.8L9 13.1L6 17H15.7L17.7 19H5M8.8 5L6.8 3H19C20.1 3 21 3.9 21 5V17.2L19 15.2V5H8.8" /></svg>
